X: 20087
T: Jimmy O'Brien's
R: jig
M: 6/8
K: Gmajor
B|cec BdB|AGA BGE|DEG AGA|BGB AGE|
cec BdB|AGA BGE|DEG AGA|BGG G2:|
D|GBd gdd|ede gdB|GBd gdB|A2d BGE|
GBd g2g|ede gdB|GAB AGA|BGG G2:|
d|gfe d2d|edc Bcd|gfe dBd|ecA A2d|
gfe d2g|edc Bcd|DEG AGA|BGF G2:|
D|GBd GBd|FAA FAd|GBd GBd|ecA A2D|
GBd GBd|FAA FAd|DEG AGA|BGF G2:|

